recalbox-backport/pc88/data/game.svg

<svg xmlns="http://www.w3.org/2000/svg" viewBox="0 0 65.89 65.89"><path d="M65.89 15.582V0H0v65.89h25.744v-.188l.141-.329.259-.259.353-.141.188-.024.188.024.329.141.259.259.141.329.023.188h10.66l.023-.188.141-.329.235-.259.353-.141.188-.024.188.024.353.141.235.259.141.329.024.188H65.89V18.728h-1.561v-3.146h1.561zM32.957 39.228a6.27 6.27 0 1 1 0-12.542 6.27 6.27 0 0 1 0 12.542z" fill-rule="evenodd" clip-rule="evenodd" fill="#040006"/><path fill="#3b3b3b" d="M43.201 36.945v.189l-.141.353-.259.259-.353.141h-.376l-.33-.141-.259-.259-.141-.353-.023-.189.023-.188.141-.329.259-.259.33-.141.188-.024.188.024.353.141.259.259.141.329v.188zM32.945 43.934h.329l.612.142.824.376.871.847.376.824.118.612.023.329v12.543l-.023.329-.118.612-.376.847-.871.847-.824.377-.612.118-.329.023-.306-.023-.612-.118-.847-.377-.847-.847-.377-.847-.141-.612V46.735l.141-.612.377-.824.847-.847.847-.376.612-.142h.306z"/><path d="M39.228 32.945l-.024.659-.259 1.224-.471 1.13-.682.988-.847.847-.988.682-1.13.471-1.224.259-.659.024-.635-.024-1.224-.259-1.13-.471-1.012-.682-.847-.847-.682-.988-.471-1.13-.235-1.224-.024-.659.024-.635.235-1.224.471-1.13.682-1.012.847-.847 1.012-.682 1.13-.471 1.224-.235.635-.024.659.024 1.224.235 1.13.471.988.682.847.847.682 1.012.471 1.13.259 1.224.024.635zm1.577 0l-.024.824-.329 1.53-.588 1.388-.847 1.271-1.059 1.059-1.271.847-1.388.588-1.53.306-.824.047-.8-.047-1.53-.306-1.412-.588-1.247-.847-1.059-1.059-.847-1.271-.612-1.388-.306-1.53-.024-.824.024-.8.306-1.53.612-1.412.847-1.247 1.059-1.059 1.247-.847 1.412-.612 1.53-.306.8-.024.824.024 1.53.306 1.388.612 1.271.847 1.059 1.059.847 1.247.588 1.412.329 1.53.024.8z" fill-rule="evenodd" clip-rule="evenodd" fill="#3b3b3b"/><path d="M41.731 15.794H1.723a.53.53 0 0 1-.529-.529V3.824a.53.53 0 0 1 .529-.529h40.008a.53.53 0 0 1 .529.529v11.442a.53.53 0 0 1-.529.528z" fill="#dfdfde"/><path d="M9.194 3.295h32.537a.53.53 0 0 1 .529.529v3.542H9.194V3.295z" fill="#968fae"/><path d="M9.194 7.366V3.295H1.723a.53.53 0 0 0-.529.529v3.542h8z"/><g fill="#dfdfde"><path d="M6.09 4.228c.318-.041.595.209.498.534-.016.051-.103.159-.103.159s.133.123.148.203c.061.331-.19.527-.443.534-.269.007-.565-.175-.507-.516.008-.046.039-.09.054-.118.016-.028.09-.103.09-.103s-.099-.156-.108-.222c-.034-.241.11-.437.371-.471zm-.063.399c0 .174.262.172.262.009 0-.185-.262-.187-.262-.009zm.135.759c.205 0 .206-.308-.004-.308-.21.001-.204.308.004.308zM5.037 4.228c.318-.041.595.209.498.534-.016.051-.103.159-.103.159s.133.123.148.203c.06.331-.19.527-.444.534-.269.007-.565-.175-.507-.516.008-.046.039-.09.054-.118.016-.028.09-.103.09-.103s-.098-.156-.107-.222c-.034-.241.109-.437.371-.471zm-.064.399c0 .174.262.172.262.009.001-.185-.262-.187-.262-.009zm.136.759c.205 0 .206-.308-.004-.308-.21.001-.205.308.004.308zM7.197 4.222a.488.488 0 0 1 .38.118c.236.226.274.965-.009 1.212a.538.538 0 0 1-.543.064c-.177-.087-.281-.32-.299-.588-.028-.421.093-.767.471-.806zm.054 1.158c.283-.006.272-.95-.045-.869-.225.059-.221.875.045.869zM4.103 4.243v.28c-.769-.207-.763 1.036-.01.83v.28c-1.167.293-1.172-1.659.01-1.39z"/><path d="M2.573 5.087l.001-.28c.136 0 .217-.047.217-.146 0-.081-.013-.161-.288-.161l.001 1.164h-.295l.003-1.446h.285c.548.002.612.222.612.434 0 .306-.213.435-.536.435zM8.179 4.218v1.444h-.29V4.218zM4.151 4.832h.341v.217h-.341z"/></g><path fill="#968fae" d="M30.861 8.345h4.5v4.5h-4.5z"/><path fill="none" stroke="#000" stroke-width=".15" stroke-miterlimit="10" d="M29.815 10.595H2.209M36.382 10.595h4.937"/></svg>

<?xml version="1.0" encoding="UTF-8" standalone="no"?>
<svg
   xmlns:dc="http://purl.org/dc/elements/1.1/"
   xmlns:cc="http://creativecommons.org/ns#"
   xmlns:rdf="http://www.w3.org/1999/02/22-rdf-syntax-ns#"
   xmlns:svg="http://www.w3.org/2000/svg"
   xmlns="http://www.w3.org/2000/svg"
   xmlns:sodipodi="http://sodipodi.sourceforge.net/DTD/sodipodi-0.dtd"
   xmlns:inkscape="http://www.inkscape.org/namespaces/inkscape"
   viewBox="0 0 65.89 65.89"
   version="1.1"
   id="svg24"
   sodipodi:docname="game.svg"
   width="65.889999"
   height="65.889999"
   inkscape:version="0.92.4 5da689c313, 2019-01-14">
  <metadata
     id="metadata30">
    <rdf:RDF>
      <cc:Work
         rdf:about="">
        <dc:format>image/svg+xml</dc:format>
        <dc:type
           rdf:resource="http://purl.org/dc/dcmitype/StillImage" />
      </cc:Work>
    </rdf:RDF>
  </metadata>
  <defs
     id="defs28" />
  <sodipodi:namedview
     pagecolor="#ffffff"
     bordercolor="#666666"
     borderopacity="1"
     objecttolerance="10"
     gridtolerance="10"
     guidetolerance="10"
     inkscape:pageopacity="0"
     inkscape:pageshadow="2"
     inkscape:window-width="640"
     inkscape:window-height="480"
     id="namedview26"
     showgrid="false"
     inkscape:zoom="3.5817272"
     inkscape:cx="32.945"
     inkscape:cy="32.945"
     inkscape:window-x="0"
     inkscape:window-y="0"
     inkscape:window-maximized="0"
     inkscape:current-layer="svg24" />
  <path
     d="M 65.89,15.582 V 0 H 0 v 65.89 h 25.744 v -0.188 l 0.141,-0.329 0.259,-0.259 0.353,-0.141 0.188,-0.024 0.188,0.024 0.329,0.141 0.259,0.259 0.141,0.329 0.023,0.188 h 10.66 l 0.023,-0.188 0.141,-0.329 0.235,-0.259 0.353,-0.141 0.188,-0.024 0.188,0.024 0.353,0.141 0.235,0.259 0.141,0.329 0.024,0.188 H 65.89 V 18.728 H 64.329 V 15.582 Z M 32.957,39.228 a 6.271,6.271 0 1 1 0,-12.542 6.271,6.271 0 0 1 0,12.542 z"
     id="path2"
     inkscape:connector-curvature="0"
     style="clip-rule:evenodd;fill:#040006;fill-rule:evenodd" />
  <path
     d="m 43.201,36.945 v 0.189 l -0.141,0.353 -0.259,0.259 -0.353,0.141 h -0.376 l -0.33,-0.141 -0.259,-0.259 -0.141,-0.353 -0.023,-0.189 0.023,-0.188 0.141,-0.329 0.259,-0.259 0.33,-0.141 0.188,-0.024 0.188,0.024 0.353,0.141 0.259,0.259 0.141,0.329 z m -10.256,6.989 h 0.329 l 0.612,0.142 0.824,0.376 0.871,0.847 0.376,0.824 0.118,0.612 0.023,0.329 v 12.543 l -0.023,0.329 -0.118,0.612 -0.376,0.847 -0.871,0.847 -0.824,0.377 -0.612,0.118 -0.329,0.023 -0.306,-0.023 -0.612,-0.118 -0.847,-0.377 -0.847,-0.847 -0.377,-0.847 -0.141,-0.612 V 46.735 l 0.141,-0.612 0.377,-0.824 0.847,-0.847 0.847,-0.376 0.612,-0.142 z"
     id="path4"
     inkscape:connector-curvature="0"
     style="fill:#3b3b3b" />
  <path
     d="m 39.228,32.945 -0.024,0.659 -0.259,1.224 -0.471,1.13 -0.682,0.988 -0.847,0.847 -0.988,0.682 -1.13,0.471 -1.224,0.259 -0.659,0.024 -0.635,-0.024 -1.224,-0.259 -1.13,-0.471 -1.012,-0.682 -0.847,-0.847 -0.682,-0.988 -0.471,-1.13 -0.235,-1.224 -0.024,-0.659 0.024,-0.635 0.235,-1.224 0.471,-1.13 0.682,-1.012 0.847,-0.847 1.012,-0.682 1.13,-0.471 1.224,-0.235 0.635,-0.024 0.659,0.024 1.224,0.235 1.13,0.471 0.988,0.682 0.847,0.847 0.682,1.012 0.471,1.13 0.259,1.224 z m 1.577,0 -0.024,0.824 -0.329,1.53 -0.588,1.388 -0.847,1.271 -1.059,1.059 -1.271,0.847 -1.388,0.588 -1.53,0.306 -0.824,0.047 -0.8,-0.047 -1.53,-0.306 -1.412,-0.588 -1.247,-0.847 -1.059,-1.059 -0.847,-1.271 -0.612,-1.388 -0.306,-1.53 -0.024,-0.824 0.024,-0.8 0.306,-1.53 0.612,-1.412 0.847,-1.247 1.059,-1.059 1.247,-0.847 1.412,-0.612 1.53,-0.306 0.8,-0.024 0.824,0.024 1.53,0.306 1.388,0.612 1.271,0.847 1.059,1.059 0.847,1.247 0.588,1.412 0.329,1.53 z"
     id="path6"
     inkscape:connector-curvature="0"
     style="clip-rule:evenodd;fill:#3b3b3b;fill-rule:evenodd" />
  <path
     d="M 41.731,15.794 H 1.723 A 0.53,0.53 0 0 1 1.194,15.265 V 3.824 A 0.53,0.53 0 0 1 1.723,3.295 h 40.008 a 0.53,0.53 0 0 1 0.529,0.529 v 11.442 a 0.53,0.53 0 0 1 -0.529,0.528 z"
     id="path8"
     inkscape:connector-curvature="0"
     style="fill:#dfdfde" />
  <path
     d="M 9.194,3.295 H 41.731 A 0.53,0.53 0 0 1 42.26,3.824 V 7.366 H 9.194 Z"
     id="path10"
     inkscape:connector-curvature="0"
     style="fill:#968fae" />
  <path
     d="M 9.194,7.366 V 3.295 H 1.723 A 0.53,0.53 0 0 0 1.194,3.824 v 3.542 z"
     id="path12"
     inkscape:connector-curvature="0" />
  <g
     id="g18"
     style="fill:#dfdfde">
    <path
       d="M 6.09,4.228 C 6.408,4.187 6.685,4.437 6.588,4.762 6.572,4.813 6.485,4.921 6.485,4.921 c 0,0 0.133,0.123 0.148,0.203 C 6.694,5.455 6.443,5.651 6.19,5.658 5.921,5.665 5.625,5.483 5.683,5.142 5.691,5.096 5.722,5.052 5.737,5.024 5.753,4.996 5.827,4.921 5.827,4.921 5.827,4.921 5.728,4.765 5.719,4.699 5.685,4.458 5.829,4.262 6.09,4.228 Z M 6.027,4.627 c 0,0.174 0.262,0.172 0.262,0.009 0,-0.185 -0.262,-0.187 -0.262,-0.009 z M 6.162,5.386 C 6.367,5.386 6.368,5.078 6.158,5.078 5.948,5.079 5.954,5.386 6.162,5.386 Z M 5.037,4.228 C 5.355,4.187 5.632,4.437 5.535,4.762 5.519,4.813 5.432,4.921 5.432,4.921 c 0,0 0.133,0.123 0.148,0.203 C 5.64,5.455 5.39,5.651 5.136,5.658 4.867,5.665 4.571,5.483 4.629,5.142 4.637,5.096 4.668,5.052 4.683,5.024 4.699,4.996 4.773,4.921 4.773,4.921 4.773,4.921 4.675,4.765 4.666,4.699 4.632,4.458 4.775,4.262 5.037,4.228 Z M 4.973,4.627 c 0,0.174 0.262,0.172 0.262,0.009 C 5.236,4.451 4.973,4.449 4.973,4.627 Z M 5.109,5.386 C 5.314,5.386 5.315,5.078 5.105,5.078 4.895,5.079 4.9,5.386 5.109,5.386 Z M 7.197,4.222 A 0.488,0.488 0 0 1 7.577,4.34 C 7.813,4.566 7.851,5.305 7.568,5.552 A 0.538,0.538 0 0 1 7.025,5.616 C 6.848,5.529 6.744,5.296 6.726,5.028 6.698,4.607 6.819,4.261 7.197,4.222 Z M 7.251,5.38 C 7.534,5.374 7.523,4.43 7.206,4.511 6.981,4.57 6.985,5.386 7.251,5.38 Z M 4.103,4.243 v 0.28 C 3.334,4.316 3.34,5.559 4.093,5.353 v 0.28 C 2.926,5.926 2.921,3.974 4.103,4.243 Z"
       id="path14"
       inkscape:connector-curvature="0" />
    <path
       d="M 2.573,5.087 2.574,4.807 C 2.71,4.807 2.791,4.76 2.791,4.661 2.791,4.58 2.778,4.5 2.503,4.5 L 2.504,5.664 H 2.209 L 2.212,4.218 H 2.497 C 3.045,4.22 3.109,4.44 3.109,4.652 3.109,4.958 2.896,5.087 2.573,5.087 Z M 8.179,4.218 V 5.662 H 7.889 V 4.218 Z M 4.151,4.832 H 4.492 V 5.049 H 4.151 Z"
       id="path16"
       inkscape:connector-curvature="0" />
  </g>
  <path
     d="m 30.861,8.345 h 4.5 v 4.5 h -4.5 z"
     id="path20"
     inkscape:connector-curvature="0"
     style="fill:#968fae" />
  <path
     stroke-miterlimit="10"
     d="M 29.815,10.595 H 2.209 m 34.173,0 h 4.937"
     id="path22"
     inkscape:connector-curvature="0"
     style="fill:none;stroke:#000000;stroke-width:0.15000001;stroke-miterlimit:10" />
</svg>
